X: 07200
T: The Little Old Log Cabin in the Lane
B: Henry Ford's "Good Morning"
Z: 2011 John Chambers <jc:trillian.mit.edu>
R: march, reel
M: 2/4
L: 1/8
K: F
(F/A/) |\
"F"[c2A2] [cA]>[dB] | [cA]A GF | "Bb"G<F F>D | "F"C2 "Dm"F"C7"[GE] |\
"F"[AF][AF] "A7"[A^C][AC] | "Dm"[AD]<[AD] "G7"[GD]>[FD] | "C7"[G4-E4-] | [G2E2] F[AF] |
"F"[c2A2] [cA]>[dB] | ([cA]A) GF | "Bb"G<F FD | "F"C2 "Dm"F"C7"[GE] |\
"F"[AF]<[cA] AF "*1"| "C7"G<B A>G | "F"F4- | F2 [GE][A_E] |
|: "Bb"[BD][BD] [BD]>[BD] | [BD] [d2F2] [dB] | "F"[dF][cF] [cF]>[AF] | [c3A3] A |\
"F"FF FF | [AF]<[cA] [cA]>[AF] "*2"| "C"[G4-E4-] | [G2E2] ([AF][BG]) |
"F"[cA][cA] [cA]>[dB] | [cA]A GF | "Bb"G<F FD | "F"C2 "Dm"F"C7"[GE] |\
"F"[AF]<[cA] AF "*3"| "C7"G<B A>G | "F"F4- |1 F2 [GE][A_E] :|2 F2 |]
P: Decorations:
"*1"| "C7"[BG]<[dB] [cA]>[BG] | "F"[AF]F/F/ [AF][cAF] | [f2c2A2F2] |\
"*2"| "C7"[GE]c/c/ [eB][geB] | [c'2g2e2] |\
"*3"| "C7"[BG]<[dB] [cA]>[BG] | "F"[AF] [CA,][CA,][CA,] | [C2A,2] |]


%%sep 5 1 500

